static/img/kroki/f99d4e042ac909f69072e1b7db892c15.svg

<?xml version="1.0" encoding="us-ascii" standalone="no"?><svg xmlns="http://www.w3.org/2000/svg" xmlns:xlink="http://www.w3.org/1999/xlink" contentStyleType="text/css" height="352px" preserveAspectRatio="none" style="width:512px;height:352px;" version="1.1" viewBox="0 0 512 352" width="512px" zoomAndPan="magnify"><defs/><g><!--class gcp_backend_service--><g id="elem_gcp_backend_service"><rect codeLine="23" fill="#3D176E" height="39.7891" id="gcp_backend_service" rx="2.5" ry="2.5" style="stroke:#000D19;stroke-width:0.5;" width="215" x="7" y="106.79"/><ellipse cx="22" cy="126.6845" fill="#ADD1B2" rx="11" ry="11" style="stroke:#181818;stroke-width:1.0;"/><path d="M24.9688,132.3252 Q24.3906,132.622 23.75,132.7627 Q23.1094,132.9189 22.4063,132.9189 Q19.9063,132.9189 18.5781,131.2783 Q17.2656,129.622 17.2656,126.497 Q17.2656,123.372 18.5781,121.7158 Q19.9063,120.0595 22.4063,120.0595 Q23.1094,120.0595 23.75,120.2158 Q24.4063,120.372 24.9688,120.6689 L24.9688,123.3877 Q24.3438,122.8095 23.75,122.5439 Q23.1563,122.2627 22.5313,122.2627 Q21.1875,122.2627 20.5,123.3408 Q19.8125,124.4033 19.8125,126.497 Q19.8125,128.5908 20.5,129.6689 Q21.1875,130.7314 22.5313,130.7314 Q23.1563,130.7314 23.75,130.4658 Q24.3438,130.1845 24.9688,129.6064 L24.9688,132.3252 Z " fill="#000000"/><text fill="#D9B8FF" font-family="Helvetica" font-size="17" lengthAdjust="spacing" textLength="173" x="41" y="132.5698">gcp_backend_service</text></g><!--class gcp_instance_group--><g id="elem_gcp_instance_group"><rect codeLine="26" fill="#3D176E" height="39.7891" id="gcp_instance_group" rx="2.5" ry="2.5" style="stroke:#000D19;stroke-width:0.5;" width="206" x="171.5" y="206.58"/><ellipse cx="186.5" cy="226.4745" fill="#ADD1B2" rx="11" ry="11" style="stroke:#181818;stroke-width:1.0;"/><path d="M189.4688,232.1152 Q188.8906,232.412 188.25,232.5527 Q187.6094,232.7089 186.9063,232.7089 Q184.4063,232.7089 183.0781,231.0683 Q181.7656,229.412 181.7656,226.287 Q181.7656,223.162 183.0781,221.5058 Q184.4063,219.8495 186.9063,219.8495 Q187.6094,219.8495 188.25,220.0058 Q188.9063,220.162 189.4688,220.4589 L189.4688,223.1777 Q188.8438,222.5995 188.25,222.3339 Q187.6563,222.0527 187.0313,222.0527 Q185.6875,222.0527 185,223.1308 Q184.3125,224.1933 184.3125,226.287 Q184.3125,228.3808 185,229.4589 Q185.6875,230.5214 187.0313,230.5214 Q187.6563,230.5214 188.25,230.2558 Q188.8438,229.9745 189.4688,229.3964 L189.4688,232.1152 Z " fill="#000000"/><text fill="#D9B8FF" font-family="Helvetica" font-size="17" lengthAdjust="spacing" textLength="164" x="205.5" y="232.3598">gcp_instance_group</text></g><!--class gcp_instance_group_manager--><g id="elem_gcp_instance_group_manager"><rect codeLine="29" fill="#3D176E" height="39.7891" id="gcp_instance_group_manager" rx="2.5" ry="2.5" style="stroke:#000D19;stroke-width:0.5;" width="290" x="129.5" y="306.37"/><ellipse cx="144.5" cy="326.2645" fill="#ADD1B2" rx="11" ry="11" style="stroke:#181818;stroke-width:1.0;"/><path d="M147.4688,331.9052 Q146.8906,332.202 146.25,332.3427 Q145.6094,332.4989 144.9063,332.4989 Q142.4063,332.4989 141.0781,330.8583 Q139.7656,329.202 139.7656,326.077 Q139.7656,322.952 141.0781,321.2958 Q142.4063,319.6395 144.9063,319.6395 Q145.6094,319.6395 146.25,319.7958 Q146.9063,319.952 147.4688,320.2489 L147.4688,322.9677 Q146.8438,322.3895 146.25,322.1239 Q145.6563,321.8427 145.0313,321.8427 Q143.6875,321.8427 143,322.9208 Q142.3125,323.9833 142.3125,326.077 Q142.3125,328.1708 143,329.2489 Q143.6875,330.3114 145.0313,330.3114 Q145.6563,330.3114 146.25,330.0458 Q146.8438,329.7645 147.4688,329.1864 L147.4688,331.9052 Z " fill="#000000"/><text fill="#D9B8FF" font-family="Helvetica" font-size="17" lengthAdjust="spacing" textLength="248" x="163.5" y="332.1498">gcp_instance_group_manager</text></g><!--class gcp_network--><g id="elem_gcp_network"><rect codeLine="32" fill="#3D176E" height="39.7891" id="gcp_network" rx="2.5" ry="2.5" style="stroke:#000D19;stroke-width:0.5;" width="149" x="200" y="7"/><ellipse cx="215" cy="26.8945" fill="#ADD1B2" rx="11" ry="11" style="stroke:#181818;stroke-width:1.0;"/><path d="M217.9688,32.5352 Q217.3906,32.832 216.75,32.9727 Q216.1094,33.1289 215.4063,33.1289 Q212.9063,33.1289 211.5781,31.4883 Q210.2656,29.832 210.2656,26.707 Q210.2656,23.582 211.5781,21.9258 Q212.9063,20.2695 215.4063,20.2695 Q216.1094,20.2695 216.75,20.4258 Q217.4063,20.582 217.9688,20.8789 L217.9688,23.5977 Q217.3438,23.0195 216.75,22.7539 Q216.1563,22.4727 215.5313,22.4727 Q214.1875,22.4727 213.5,23.5508 Q212.8125,24.6133 212.8125,26.707 Q212.8125,28.8008 213.5,29.8789 Q214.1875,30.9414 215.5313,30.9414 Q216.1563,30.9414 216.75,30.6758 Q217.3438,30.3945 217.9688,29.8164 L217.9688,32.5352 Z " fill="#000000"/><text fill="#D9B8FF" font-family="Helvetica" font-size="17" lengthAdjust="spacing" textLength="107" x="234" y="32.7798">gcp_network</text></g><!--class gcp_subnetwork--><g id="elem_gcp_subnetwork"><rect codeLine="35" fill="#3D176E" height="39.7891" id="gcp_subnetwork" rx="2.5" ry="2.5" style="stroke:#000D19;stroke-width:0.5;" width="178" x="327.5" y="106.79"/><ellipse cx="342.5" cy="126.6845" fill="#ADD1B2" rx="11" ry="11" style="stroke:#181818;stroke-width:1.0;"/><path d="M345.4688,132.3252 Q344.8906,132.622 344.25,132.7627 Q343.6094,132.9189 342.9063,132.9189 Q340.4063,132.9189 339.0781,131.2783 Q337.7656,129.622 337.7656,126.497 Q337.7656,123.372 339.0781,121.7158 Q340.4063,120.0595 342.9063,120.0595 Q343.6094,120.0595 344.25,120.2158 Q344.9063,120.372 345.4688,120.6689 L345.4688,123.3877 Q344.8438,122.8095 344.25,122.5439 Q343.6563,122.2627 343.0313,122.2627 Q341.6875,122.2627 341,123.3408 Q340.3125,124.4033 340.3125,126.497 Q340.3125,128.5908 341,129.6689 Q341.6875,130.7314 343.0313,130.7314 Q343.6563,130.7314 344.25,130.4658 Q344.8438,130.1845 345.4688,129.6064 L345.4688,132.3252 Z " fill="#000000"/><text fill="#D9B8FF" font-family="Helvetica" font-size="17" lengthAdjust="spacing" textLength="136" x="361.5" y="132.5698">gcp_subnetwork</text></g><!--link gcp_backend_service to gcp_instance_group--><g id="link_gcp_backend_service_gcp_instance_group"><path codeLine="38" d="M146.11,147.01 C174.16,164.15 209.8012,185.9299 237.8312,203.0699 " fill="none" id="gcp_backend_service-to-gcp_instance_group" style="stroke:#1A83AF;stroke-width:2.0;"/><polygon fill="#1A83AF" points="242.95,206.2,237.3585,198.0923,238.6843,203.5916,233.185,204.9174,242.95,206.2" style="stroke:#1A83AF;stroke-width:2.0;"/></g><!--link gcp_instance_group to gcp_instance_group_manager--><g id="link_gcp_instance_group_gcp_instance_group_manager"><path codeLine="39" d="M274.5,246.8 C274.5,263.94 274.5,282.85 274.5,299.99 " fill="none" id="gcp_instance_group-to-gcp_instance_group_manager" style="stroke:#1A83AF;stroke-width:2.0;"/><polygon fill="#1A83AF" points="274.5,305.99,278.5,296.99,274.5,300.99,270.5,296.99,274.5,305.99" style="stroke:#1A83AF;stroke-width:2.0;"/></g><!--link gcp_network to gcp_backend_service--><g id="link_gcp_network_gcp_backend_service"><path codeLine="40" d="M242.89,47.22 C214.84,64.36 179.1996,86.1512 151.1696,103.2812 " fill="none" id="gcp_network-to-gcp_backend_service" style="stroke:#1A83AF;stroke-width:2.0;"/><polygon fill="#1A83AF" points="146.05,106.41,155.8153,105.1299,150.3164,103.8027,151.6436,98.3037,146.05,106.41" style="stroke:#1A83AF;stroke-width:2.0;"/></g><!--link gcp_network to gcp_instance_group--><g id="link_gcp_network_gcp_instance_group"><path codeLine="41" d="M274.5,47.2 C274.5,84.97 274.5,162.26 274.5,200.09 " fill="none" id="gcp_network-to-gcp_instance_group" style="stroke:#1A83AF;stroke-width:2.0;"/><polygon fill="#1A83AF" points="274.5,206.09,278.5,197.09,274.5,201.09,270.5,197.09,274.5,206.09" style="stroke:#1A83AF;stroke-width:2.0;"/></g><!--link gcp_network to gcp_subnetwork--><g id="link_gcp_network_gcp_subnetwork"><path codeLine="42" d="M302.55,47.22 C327.45,64.36 358.6887,85.8765 383.5587,103.0065 " fill="none" id="gcp_network-to-gcp_subnetwork" style="stroke:#1A83AF;stroke-width:2.0;"/><polygon fill="#1A83AF" points="388.5,106.41,383.357,98.0106,384.3823,103.5738,378.8191,104.599,388.5,106.41" style="stroke:#1A83AF;stroke-width:2.0;"/></g><!--link gcp_subnetwork to gcp_instance_group--><g id="link_gcp_subnetwork_gcp_instance_group"><path codeLine="43" d="M388.45,147.01 C363.55,164.15 332.3104,185.6552 307.4404,202.7952 " fill="none" id="gcp_subnetwork-to-gcp_instance_group" style="stroke:#1A83AF;stroke-width:2.0;"/><polygon fill="#1A83AF" points="302.5,206.2,312.1804,204.3863,306.617,203.3627,307.6407,197.7992,302.5,206.2" style="stroke:#1A83AF;stroke-width:2.0;"/></g><!--SRC=[XP1HJy8m4CVV-ocQy4p2N1HuCPaaH5-84T-CMRhsEffjxN8j43H-Tvc8bcvih_V_tTtlRgC4KAXgTw0LL1cW9RPGkcR8AfeWclt2b0RfI4ecusaOBersWy2ALK0VeTo1Kvo5nEj6yKA3jVJ6YnuOBt8qMorEunqoROyHQETHYv9PcpY7Ajiwy6J4F9j96PBXq54iekaTj3230l0NcKmc8fg7oE2gthl_YBNw01hvJriP1otDreeVgjUo8Jp9rg7d_AhZCnD2wPpUUhMNanDgm8lwUiE4sJUqPANrrrW72COTQbYqheBvJCXf9_nq3IQyUHtDUPrcHmIqI2tWJd6WduHyUR7IrZ7D8Mt6rFrfMZ7DykDH0QN1xGqMOTbkiukaosRyDegIMPmityVt7Hj9X-90orcI-6Qjdi2Z7-vmkih-7qs27moD_GO0]--></g></svg>

<svg xmlns="http://www.w3.org/2000/svg" width="512" height="352" viewBox="0 0 512 352"><rect width="215" height="39.789" x="7" y="106.79" fill="#3D176E" rx="2.5" ry="2.5" style="stroke:#000d19;stroke-width:.5"/><circle cx="22" cy="126.684" r="11" fill="#ADD1B2" style="stroke:#181818;stroke-width:1"/><path d="M24.969 132.325q-.578.297-1.219.438-.64.156-1.344.156-2.5 0-3.828-1.64-1.312-1.657-1.312-4.782t1.312-4.781q1.328-1.656 3.828-1.656.703 0 1.344.156.656.156 1.219.453v2.719q-.625-.579-1.219-.844-.594-.281-1.219-.281-1.343 0-2.031 1.078-.687 1.062-.687 3.156t.687 3.172q.688 1.062 2.031 1.062.625 0 1.219-.265.594-.281 1.219-.86z"/><text x="41" y="132.57" fill="#D9B8FF" font-family="Helvetica" font-size="17" textLength="173">gcp_backend_service</text><rect width="206" height="39.789" x="171.5" y="206.58" fill="#3D176E" rx="2.5" ry="2.5" style="stroke:#000d19;stroke-width:.5"/><circle cx="186.5" cy="226.475" r="11" fill="#ADD1B2" style="stroke:#181818;stroke-width:1"/><path d="M189.469 232.115q-.578.297-1.219.438-.64.156-1.344.156-2.5 0-3.828-1.64-1.312-1.657-1.312-4.782t1.312-4.781q1.328-1.656 3.828-1.656.703 0 1.344.156.656.156 1.219.453v2.719q-.625-.578-1.219-.844-.594-.281-1.219-.281-1.344 0-2.031 1.078-.687 1.062-.687 3.156t.687 3.172q.688 1.062 2.031 1.062.625 0 1.219-.265.594-.281 1.219-.86z"/><text x="205.5" y="232.36" fill="#D9B8FF" font-family="Helvetica" font-size="17" textLength="164">gcp_instance_group</text><rect width="290" height="39.789" x="129.5" y="306.37" fill="#3D176E" rx="2.5" ry="2.5" style="stroke:#000d19;stroke-width:.5"/><circle cx="144.5" cy="326.264" r="11" fill="#ADD1B2" style="stroke:#181818;stroke-width:1"/><path d="M147.469 331.905q-.578.297-1.219.438-.64.156-1.344.156-2.5 0-3.828-1.64-1.312-1.657-1.312-4.782t1.312-4.781q1.328-1.656 3.828-1.656.703 0 1.344.156.656.156 1.219.453v2.719q-.625-.579-1.219-.844-.594-.281-1.219-.281-1.344 0-2.031 1.078-.687 1.062-.687 3.156t.687 3.172q.688 1.062 2.031 1.062.625 0 1.219-.265.594-.281 1.219-.86z"/><text x="163.5" y="332.15" fill="#D9B8FF" font-family="Helvetica" font-size="17" textLength="248">gcp_instance_group_manager</text><rect width="149" height="39.789" x="200" y="7" fill="#3D176E" rx="2.5" ry="2.5" style="stroke:#000d19;stroke-width:.5"/><circle cx="215" cy="26.895" r="11" fill="#ADD1B2" style="stroke:#181818;stroke-width:1"/><path d="M217.969 32.535q-.578.297-1.219.438-.64.156-1.344.156-2.5 0-3.828-1.64-1.312-1.657-1.312-4.782t1.312-4.781q1.328-1.656 3.828-1.656.703 0 1.344.156.656.156 1.219.453v2.719q-.625-.578-1.219-.844-.594-.281-1.219-.281-1.344 0-2.031 1.078-.687 1.062-.687 3.156t.687 3.172q.688 1.062 2.031 1.062.625 0 1.219-.265.594-.281 1.219-.86z"/><text x="234" y="32.78" fill="#D9B8FF" font-family="Helvetica" font-size="17" textLength="107">gcp_network</text><rect width="178" height="39.789" x="327.5" y="106.79" fill="#3D176E" rx="2.5" ry="2.5" style="stroke:#000d19;stroke-width:.5"/><circle cx="342.5" cy="126.684" r="11" fill="#ADD1B2" style="stroke:#181818;stroke-width:1"/><path d="M345.469 132.325q-.578.297-1.219.438-.64.156-1.344.156-2.5 0-3.828-1.64-1.312-1.657-1.312-4.782t1.312-4.781q1.328-1.656 3.828-1.656.703 0 1.344.156.656.156 1.219.453v2.719q-.625-.579-1.219-.844-.594-.281-1.219-.281-1.344 0-2.031 1.078-.687 1.062-.687 3.156t.687 3.172q.688 1.062 2.031 1.062.625 0 1.219-.265.594-.281 1.219-.86z"/><text x="361.5" y="132.57" fill="#D9B8FF" font-family="Helvetica" font-size="17" textLength="136">gcp_subnetwork</text><path fill="none" d="M146.11 147.01c28.05 17.14 63.691 38.92 91.721 56.06" style="stroke:#1a83af;stroke-width:2"/><path fill="#1A83AF" d="m242.95 206.2-5.591-8.108 1.325 5.5-5.499 1.325z" style="stroke:#1a83af;stroke-width:2"/><path fill="none" d="M274.5 246.8v53.19" style="stroke:#1a83af;stroke-width:2"/><path fill="#1A83AF" d="m274.5 305.99 4-9-4 4-4-4z" style="stroke:#1a83af;stroke-width:2"/><path fill="none" d="M242.89 47.22c-28.05 17.14-63.69 38.931-91.72 56.061" style="stroke:#1a83af;stroke-width:2"/><path fill="#1A83AF" d="m146.05 106.41 9.765-1.28-5.499-1.327 1.328-5.5z" style="stroke:#1a83af;stroke-width:2"/><path fill="none" d="M274.5 47.2v152.89" style="stroke:#1a83af;stroke-width:2"/><path fill="#1A83AF" d="m274.5 206.09 4-9-4 4-4-4z" style="stroke:#1a83af;stroke-width:2"/><path fill="none" d="M302.55 47.22c24.9 17.14 56.139 38.656 81.009 55.787" style="stroke:#1a83af;stroke-width:2"/><path fill="#1A83AF" d="m388.5 106.41-5.143-8.4 1.025 5.564-5.563 1.025z" style="stroke:#1a83af;stroke-width:2"/><path fill="none" d="M388.45 147.01c-24.9 17.14-56.14 38.645-81.01 55.785" style="stroke:#1a83af;stroke-width:2"/><path fill="#1A83AF" d="m302.5 206.2 9.68-1.814-5.563-1.023 1.024-5.564z" style="stroke:#1a83af;stroke-width:2"/></svg>
